packages/gestalt/src/icons/location.svg

<svg width="24" height="24" xmlns="http://www.w3.org/2000/svg"><path fill="#B4B4B5" d="M12 4.5c1.66 0 3 1.34 3 3s-1.34 3-3 3-3-1.34-3-3 1.34-3 3-3m7.5 3C19.5 3.36 16.14 0 12 0 7.86 0 4.5 3.36 4.5 7.5c0 1.3.36 2.5.94 3.56H5.4L12 24l6.6-12.94h-.04c.58-1.06.94-2.26.94-3.56"/></svg>

<svg width="24" height="24" viewBox="0 0 24 24" xmlns="http://www.w3.org/2000/svg"><path fill="#B4B4B5" d="M12.00,4.50 C13.66,4.50 15.00,5.84 15.00,7.50 C15.00,9.16 13.66,10.50 12.00,10.50 C10.34,10.50 9.00,9.16 9.00,7.50 C9.00,5.84 10.34,4.50 12.00,4.50 M19.50,7.50 C19.50,3.36 16.14,0.00 12.00,0.00 C7.86,0.00 4.50,3.36 4.50,7.50 C4.50,8.80 4.86,10.00 5.44,11.06 L5.40,11.06 L12.00,24.00 L18.60,11.06 L18.56,11.06 C19.14,10.00 19.50,8.80 19.50,7.50"/></svg>
